src/apps/scalable/firewall-config.svg

<?xml version="1.0" encoding="UTF-8"?>
<svg width="64" height="64" version="1.1" xmlns="http://www.w3.org/2000/svg" xmlns:cc="http://creativecommons.org/ns#" xmlns:dc="http://purl.org/dc/elements/1.1/" xmlns:rdf="http://www.w3.org/1999/02/22-rdf-syntax-ns#" xmlns:xlink="http://www.w3.org/1999/xlink">
 <metadata>
  <rdf:RDF>
   <cc:Work rdf:about="">
    <dc:format>image/svg+xml</dc:format>
    <dc:type rdf:resource="http://purl.org/dc/dcmitype/StillImage"/>
    <dc:title/>
   </cc:Work>
  </rdf:RDF>
 </metadata>
 <defs>
  <linearGradient id="b" x1="97.425" x2="97.425" y1="-9.0071" y2="209.87" gradientTransform="matrix(.28 0 0 .28 3.9997 3.9998)" gradientUnits="userSpaceOnUse">
   <stop stop-color="#f2bb2c" offset="0"/>
   <stop stop-color="#f54545" offset="1"/>
  </linearGradient>
  <filter id="c" x="-.036" y="-.036" width="1.072" height="1.072" color-interpolation-filters="sRGB">
   <feGaussianBlur stdDeviation="14.343749"/>
  </filter>
  <linearGradient id="b-3" x1="24" x2="24" y1="44" y2="4.0039" gradientTransform="matrix(1.5 0 0 1.5 -4 -4)" gradientUnits="userSpaceOnUse">
   <stop stop-color="#c7c7c9" offset="0"/>
   <stop stop-color="#e6e8ea" offset="1"/>
  </linearGradient>
  <linearGradient id="d-7" x1="24" x2="24" y1="32.602" y2="15.721" gradientTransform="matrix(1.5 0 0 1.5 -4 -4)" gradientUnits="userSpaceOnUse">
   <stop stop-color="#eff1f1" offset="0"/>
   <stop stop-color="#fcfcfc" offset="1"/>
  </linearGradient>
  <linearGradient id="e" x1="24" x2="24" y1="34" y2="14" gradientTransform="matrix(1.5 0 0 1.5 -4 -4)" gradientUnits="userSpaceOnUse" xlink:href="#a-3"/>
  <linearGradient id="a-3">
   <stop stop-color="#4d4d4d" offset="0"/>
   <stop stop-color="#536161" offset="1"/>
  </linearGradient>
  <linearGradient id="g" x1="24" x2="24" y1="31.214" y2="17.22" gradientTransform="matrix(1.5 0 0 1.5 -4 -4)" gradientUnits="userSpaceOnUse" xlink:href="#a-3"/>
  <filter id="filter1014" x="-.06" y="-.06" width="1.12" height="1.12" color-interpolation-filters="sRGB">
   <feGaussianBlur stdDeviation="0.75"/>
  </filter>
  <filter id="filter891" x="-.035966" y="-.036034" width="1.0719" height="1.0721" color-interpolation-filters="sRGB">
   <feGaussianBlur stdDeviation="0.83921714"/>
  </filter>
 </defs>
 <circle transform="matrix(.062745 0 0 .062745 -.12549 -1.9)" cx="512" cy="540.36" r="478.12" color="#000000" filter="url(#c)" opacity=".25" stroke-width="15.938"/>
 <path d="m32 2.0059a30 30 0 0 0-30 30 30 30 0 0 0 29.922 29.994h0.18945a30 30 0 0 0 29.889-29.994 30 30 0 0 0-30-30z" fill="url(#b-3)" stroke-width="1.5"/>
 <path d="m30.5 4.0527a28 28 0 0 0-18.555 8.4473h18.555v-8.4473zm3 0.023438v8.4238h18.594a28 28 0 0 0-18.594-8.4238zm-24.086 11.424a28 28 0 0 0-4.3613 9h10.447v-9h-6.0859zm9.0859 0v9h27v-9h-27zm30 0v9h10.477a28 28 0 0 0-4.3965-9h-6.0801zm-44.102 12a28 28 0 0 0-0.39844 4.5 28 28 0 0 0 0.37695 4.5h26.123v-9h-26.102zm29.102 0v9h26.102a28 28 0 0 0 0.39844-4.5 28 28 0 0 0-0.37695-4.5h-26.123zm-28.477 12a28 28 0 0 0 4.3965 9h6.0801v-9h-10.477zm13.477 0v9h27v-9h-27zm30 0v9h6.0859a28 28 0 0 0 4.3613-9h-10.447zm-36.594 12a28 28 0 0 0 18.594 8.4238v-8.4238h-18.594zm21.594 0v8.4473a28 28 0 0 0 18.555-8.4473h-18.555z" color="#000000" filter="url(#filter891)" opacity=".15" stroke-width=".93337"/>
 <path d="m30.5 4.0527a28 28 0 0 0-18.555 8.4473h18.555v-8.4473zm3 0.023438v8.4238h18.594a28 28 0 0 0-18.594-8.4238zm-24.086 11.424a28 28 0 0 0-4.3613 9h10.447v-9h-6.0859zm9.0859 0v9h27v-9h-27zm30 0v9h10.477a28 28 0 0 0-4.3965-9h-6.0801zm-44.102 12a28 28 0 0 0-0.39844 4.5 28 28 0 0 0 0.37695 4.5h26.123v-9h-26.102zm29.102 0v9h26.102a28 28 0 0 0 0.39844-4.5 28 28 0 0 0-0.37695-4.5h-26.123zm-28.477 12a28 28 0 0 0 4.3965 9h6.0801v-9h-10.477zm13.477 0v9h27v-9h-27zm30 0v9h6.0859a28 28 0 0 0 4.3613-9h-10.447zm-36.594 12a28 28 0 0 0 18.594 8.4238v-8.4238h-18.594zm21.594 0v8.4473a28 28 0 0 0 18.555-8.4473h-18.555z" color="#000000" fill="url(#b)" stroke-width=".93337"/>
 <g stroke-width="1.5">
  <path d="m32 17s-3.75 4.9845-15 6.234c0 0 0 17.5 15 23.766 15-6.2655 15-23.766 15-23.766-11.25-1.2495-15-6.234-15-6.234zm0 2.58c2.976 2.523 7.269 4.2045 12.836 5.052-0.303 2.709-0.5925 4.749-1.293 6.72-1.4715 4.143-3.189 6.66-4.728 8.4735-2.385 2.808-4.551 3.945-6.8145 5.0775-2.2635-1.131-4.4295-2.2695-6.8145-5.0775-1.539-1.812-3.255-4.3305-4.728-8.4735-0.7005-1.971-0.99-4.011-1.293-6.72 5.5665-0.8475 9.8595-2.529 12.836-5.0505z" filter="url(#filter1014)" opacity=".25"/>
  <path d="m18.875 24.5 13.125-5.625 13.125 5.625v7.5l-5.625 7.5-5.625 5.625h-3.75l-5.625-5.625-5.625-7.5z" fill="url(#d-7)"/>
  <path d="m32 17s-3.75 4.9845-15 6.234c0 0 0 17.5 15 23.766 15-6.2655 15-23.766 15-23.766-11.25-1.2495-15-6.234-15-6.234zm0 2.58c2.976 2.523 7.269 4.2045 12.836 5.052-0.303 2.709-0.5925 4.749-1.293 6.72-1.4715 4.143-3.189 6.66-4.728 8.4735-2.385 2.808-4.551 3.945-6.8145 5.0775-2.2635-1.131-4.4295-2.2695-6.8145-5.0775-1.539-1.812-3.255-4.3305-4.728-8.4735-0.7005-1.971-0.99-4.011-1.293-6.72 5.5665-0.8475 9.8595-2.529 12.836-5.0505z" fill="url(#e)"/>
  <path d="m32 21.83c-3.27 2.2695-6.942 3.42-10.628 4.2 1.746 9.9045 5.505 14.139 10.628 16.791 5.1225-2.652 8.8815-6.8865 10.628-16.79-3.6855-0.783-7.359-1.932-10.628-4.2z" fill="url(#g)"/>
 </g>
</svg>

<svg width="64" height="64" xmlns="http://www.w3.org/2000/svg" xmlns:xlink="http://www.w3.org/1999/xlink"><defs><linearGradient id="e" x1="97.425" x2="97.425" y1="-9.007" y2="209.87" gradientTransform="matrix(.28 0 0 .28 4 4)" gradientUnits="userSpaceOnUse"><stop stop-color="#f2bb2c" offset="0"/><stop stop-color="#f54545" offset="1"/></linearGradient><linearGradient id="c" x1="24" x2="24" y1="44" y2="4.004" gradientTransform="matrix(1.5 0 0 1.5 -4 -4)" gradientUnits="userSpaceOnUse"><stop stop-color="#c7c7c9" offset="0"/><stop stop-color="#e6e8ea" offset="1"/></linearGradient><linearGradient id="g" x1="24" x2="24" y1="32.602" y2="15.721" gradientTransform="matrix(1.5 0 0 1.5 -4 -4)" gradientUnits="userSpaceOnUse"><stop stop-color="#eff1f1" offset="0"/><stop stop-color="#fcfcfc" offset="1"/></linearGradient><linearGradient id="h" x1="24" x2="24" y1="34" y2="14" gradientTransform="matrix(1.5 0 0 1.5 -4 -4)" gradientUnits="userSpaceOnUse" xlink:href="#a"/><linearGradient id="a"><stop stop-color="#4d4d4d" offset="0"/><stop stop-color="#536161" offset="1"/></linearGradient><linearGradient id="i" x1="24" x2="24" y1="31.214" y2="17.22" gradientTransform="matrix(1.5 0 0 1.5 -4 -4)" gradientUnits="userSpaceOnUse" xlink:href="#a"/><filter id="b" x="-.036" y="-.036" width="1.072" height="1.072" color-interpolation-filters="sRGB"><feGaussianBlur stdDeviation="14.344"/></filter><filter id="f" x="-.06" y="-.06" width="1.12" height="1.12" color-interpolation-filters="sRGB"><feGaussianBlur stdDeviation=".75"/></filter><filter id="d" x="-.036" y="-.036" width="1.072" height="1.072" color-interpolation-filters="sRGB"><feGaussianBlur stdDeviation=".839"/></filter></defs><circle transform="matrix(.06274 0 0 .06274 -.125 -1.9)" cx="512" cy="540.36" r="478.12" color="#000" filter="url(#b)" opacity=".25"/><path d="M32 2.006a30 30 0 0 0-30 30A30 30 0 0 0 31.922 62h.19A30 30 0 0 0 62 32.006a30 30 0 0 0-30-30z" fill="url(#c)"/><path d="M30.5 4.053A28 28 0 0 0 11.945 12.5H30.5V4.053zm3 .023V12.5h18.594A28 28 0 0 0 33.5 4.076zM9.414 15.5a28 28 0 0 0-4.361 9H15.5v-9H9.414zm9.086 0v9h27v-9h-27zm30 0v9h10.477a28 28 0 0 0-4.397-9H48.5zm-44.102 12a28 28 0 0 0-.399 4.5 28 28 0 0 0 .377 4.5H30.5v-9H4.397zm29.102 0v9h26.102A28 28 0 0 0 60 32a28 28 0 0 0-.377-4.5H33.5zm-28.477 12a28 28 0 0 0 4.396 9h6.08v-9H5.024zm13.477 0v9h27v-9h-27zm30 0v9h6.086a28 28 0 0 0 4.361-9H48.5zm-36.594 12A28 28 0 0 0 30.5 59.924V51.5H11.906zm21.594 0v8.447A28 28 0 0 0 52.055 51.5H33.5z" color="#000" filter="url(#d)" opacity=".15"/><path d="M30.5 4.053A28 28 0 0 0 11.945 12.5H30.5V4.053zm3 .023V12.5h18.594A28 28 0 0 0 33.5 4.076zM9.414 15.5a28 28 0 0 0-4.361 9H15.5v-9H9.414zm9.086 0v9h27v-9h-27zm30 0v9h10.477a28 28 0 0 0-4.397-9H48.5zm-44.102 12a28 28 0 0 0-.399 4.5 28 28 0 0 0 .377 4.5H30.5v-9H4.397zm29.102 0v9h26.102A28 28 0 0 0 60 32a28 28 0 0 0-.377-4.5H33.5zm-28.477 12a28 28 0 0 0 4.396 9h6.08v-9H5.024zm13.477 0v9h27v-9h-27zm30 0v9h6.086a28 28 0 0 0 4.361-9H48.5zm-36.594 12A28 28 0 0 0 30.5 59.924V51.5H11.906zm21.594 0v8.447A28 28 0 0 0 52.055 51.5H33.5z" color="#000" fill="url(#e)"/><g stroke-width="1.5"><path d="M32 17s-3.75 4.984-15 6.234c0 0 0 17.5 15 23.766 15-6.266 15-23.766 15-23.766C35.75 21.984 32 17 32 17zm0 2.58c2.976 2.523 7.269 4.205 12.836 5.052-.303 2.709-.593 4.749-1.293 6.72-1.472 4.143-3.189 6.66-4.728 8.473-2.385 2.808-4.551 3.945-6.814 5.078-2.264-1.131-4.43-2.27-6.815-5.077-1.539-1.813-3.255-4.331-4.728-8.474-.7-1.971-.99-4.011-1.293-6.72 5.566-.848 9.86-2.529 12.836-5.05z" filter="url(#f)" opacity=".25"/><path d="M18.875 24.5 32 18.875 45.125 24.5V32L39.5 39.5l-5.625 5.625h-3.75L24.5 39.5 18.875 32z" fill="url(#g)"/><path d="M32 17s-3.75 4.984-15 6.234c0 0 0 17.5 15 23.766 15-6.266 15-23.766 15-23.766C35.75 21.984 32 17 32 17zm0 2.58c2.976 2.523 7.269 4.205 12.836 5.052-.303 2.709-.593 4.749-1.293 6.72-1.472 4.143-3.189 6.66-4.728 8.473-2.385 2.808-4.551 3.945-6.814 5.078-2.264-1.131-4.43-2.27-6.815-5.077-1.539-1.813-3.255-4.331-4.728-8.474-.7-1.971-.99-4.011-1.293-6.72 5.566-.848 9.86-2.529 12.836-5.05z" fill="url(#h)"/><path d="M32 21.83c-3.27 2.27-6.942 3.42-10.628 4.2C23.118 35.934 26.877 40.169 32 42.821c5.122-2.652 8.882-6.886 10.628-16.79-3.686-.783-7.359-1.932-10.628-4.2z" fill="url(#i)"/></g></svg>
